X:1
T:Ov' è condott' il mio amoroso stile
T:Orlandi di Lasso
T:Ov' è condott' il mio amoroso stile
C:Orlandi di Lasso
%%score [ 1 2 3 4 ]
L:1/8
Q:1/4=100
M:4/4
K:F
V:1 treble nm="Soprano" snm="S"
V:2 treble nm="Alto" snm="A"
V:3 treble-8 nm="Tenor" snm="T"
V:4 bass nm="Bass" snm="B"
V:1
"^Petrarca, stanza 3 Mia Benigna fortuna" z4 G4- | G4 G4 | G8 | B8- | B4 A4 | G4 ^F4 | G4 G4 | A8 | %8
w: Ov'|_ è|con-|dott'|_ il|mio~a- mo-|ro- so|sti-|
 A4 A4 | B4 G2 A2- | A2 F2 F2 F2 | F4 A4 | G8 | F4 B4 | A2 B2 G4 | F4 G4 | B2 B4 A2 | B8 | A8 | %19
w: le A|par- lar d'ir',|_ a ra- gio-|nar di|mor-|te? U|son' i vers',|u son|giun- te le|ri-|me|
 z8 | G6 G2 | B4 A2 A2 | B2 B2 G2 G2 | B4 A4 | z4 G4- | G2 G2 ^F4 | G8 | z4 G4- | G2 G2 ^F4 | %29
w: |Che gen-|til cor u-|dia pen- sos' e|lie- to,|che|_ gen- til|cor,|che|_ gen- til|
 G2 G2 A4 | B4 B2 B2 | A8 | A8 | z4 =B4 | =B4 B2 c2- | c2 c2 c4- | c4 B4 | G4 B4- | B4 G4- | %39
w: cor u- dia|pen- sos' e|lie-|to?|Ov'|è~il fa- vo-|* leg- giar,|_ d'a-|mor le|_ no-|
 G4 ^F2 E2 | ^F4 A4 | A8 | B8 | A4 G4- | G4 A4 | B8 | G4 G4 | F8 | F4 B4- | B4 A4 | G4 ^F4 | %51
w: |te? Hor|non|parl'|io ne|_ pens'|al-|tro che|pian-|to, Hor|_ non|parl' io|
 z4 G4 | A8 | G4 G4- | G4 F4 | _E8 | D8 | D8 |] %58
w: ne|pens'|al- tro|_ che|pian-||to.|
V:2
 D8 | D4 D4 | E4 E4 | F8 | F8 | D8 | D8 | E8 | ^F4 F4 | G4 E2 F2- | F2 D2 D2 D2 | C4 F4 | _E8 | %13
w: Ov'|è con-|dott' il|mio~a-|mo-|ro-|so|sti-|le A|par- lar d'ir',|_ a ra- gio-|nar di|mor-|
 D4 F4 | F2 F4 E2 | C2 D4 E2 | F2 G2 F4 | F2 F2 G2 G2 | E4 F4 | D6 D2 | B,4 C4 | D8 | D8 | z4 D4- | %24
w: te? U|son' i vers',|u son giun-|te le ri-|me, u son' i|vers', u|son giun-|te le|ri-|me|Che|
 D2 D2 _E4 | D4 D4 | _E4 E4 | C4 D4 | _E4 D2 A,2 | =B,4 C4 | G4 G4 | E8 | ^F8 | z4 G4 | G4 G2 A2- | %35
w: _ gen- til|cor u-|dia pen-|sos' e|lie- to, u-|dia pen-|sos' e|lie-|to?|Ov'|è~il fa- vo-|
 A2 A2 A4- | A4 G4 | _E4 D4- | D2 CB, C4 | D8 | D4 F4 | E4 ^F4 | G8 | z4 D4 | E4 F4- | F4 B,4 | %46
w: * leg- giar,|_ d'a-|mor le|_ _ _ _|no-|te? Hor|non parl'|io|ne|pens' al-|* tro|
 _E8 | C8 | D4 F4- | F4 F4 | D4 D4 | z4 E4 | F8 | D8 | D6 C2 | B,4 C4 | A,8 | =B,8 |] %58
w: che|pian-|to, Hor|_ non|parl' io|ne|pens'|al-|tro _|_ che|pian-|to.|
V:3
 =B8- | B8 | c4 c4 | d8- | d4 c4 | B4 A4 | G4 d4- | d4 ^c4 | d4 d4 | d4 c2 c2- | c2 B2 B2 B2 | %11
w: Ov'|_|è con-|dott'|_ il|mio~a- mo-|ro- so|_ sti-|le A|par- lar d'ir',|_ a ra- gio-|
 A4 d4 | B8 | B4 d4 | d2 B2 c4 | A2 B4 c2 | d2 _e2 c4 | d4 z2 d2 | ^c2 c2 d2 d2 | B4 A4 | z4 G4- | %21
w: nar di|mor-|te? U|son' i vers',|u son giun-|te le ri-|me, u|son giun- te le|ri- me|Che|
 G2 G2 ^F4 | G2 G2 B4 | d4 D2 A2 | =B4 c4 | A6 A2 | c4 c2 c2 | _e4 d4 | c2 c2 A2 d2- | d2 d2 f4 | %30
w: _ gen- til|cor u- dia|pen- sos' e|lie- to,|che gen-|til cor u-|dia pen-|sos' e lie- to,|_ pen- sos'|
 _e2 d2 d4- | d2 ^c=B c4 | d8 | z4 d4 | d4 d2 f2- | f2 f2 f4- | f4 d4 | c4 F4 | G6 A2 | B4 A2 G2 | %40
w: e lie- *||to?|Ov'|è~il fa- vo-|* leg- giar,|_ d'a-|mor le|no- *||
 A4 d4 | ^c4 d4 | G4 d4- | d4 =B4 | c8 | d4 G2 A2 | B2 c2 B4- | B2 AG A4 | B4 d4- | d4 c4 | B4 A4 | %51
w: te? Hor|non parl'|io ne|_ pens'|al-|tro che _|_ _ _|* pian- * *|to, Hor|_ non|parl' io|
 z4 c4- | c4 d4- | d4 B4 | A4 A4- | A2 G2 G4- | G4 ^F4 | G8 |] %58
w: ne|_ pens'|_ al-|tro che|_ _ _|* pian-|to.|
V:4
 G,8 | G,4 G,4 | C,8 | B,,4 B,4- | B,4 F,4 | G,4 D,4 | B,8 | A,8 | D,4 D,4 | G,4 C,2 F,2- | %10
w: Ov'|è con-|dott'|il mio~a-|* mo-|ro- so|sti-||le A|par- lar d'ir',|
 F,2 B,,2 B,,2 B,,2 | F,4 D,4 | _E,8 | B,,8 | z8 | z8 | z4 F,4 | B,2 B,2 G,4 | A,4 D,4 | %19
w: _ a ra- gio-|nar di|mor-|te?|||U|son' i vers',|u son|
 G,4 D,2 D,2 | _E,8 | D,8 | z4 G,4- | G,2 G,2 ^F,4 | G,4 C,4 | D,8 | z4 C,4- | C,2 C,2 =B,,4 | %28
w: giun- te le|ri-|me|Che|_ gen- til|cor u-|dia|Che|_ gen- til|
 C,2 C,2 D,4 | G,4 F,2 F,2 | G,8- | G,8 | D,8 | z4 G,4 | G,4 G,2 F,2- | F,2 F,2 F,4- | F,4 G,4 | %37
w: cor u- dia|pen- sos' e|lie-||to?|Ov'|è~il fa- vo-|* leg- giar,|_ d'a-|
 C,4 D,4 | _E,8 | D,8- | D,8 | z8 | z4 G,4 | ^F,4 G,4 | C,4 F,4 | B,,4 _E,4 | _E,4 E,4 | F,8 | %48
w: mor le|no-|te?|_||Hor|non parl'|io ne|pens' al-|tro che|pian-|
 B,,4 B,4- | B,4 F,4 | G,4 D,4 | z4 C,4 | F,4 D,4 | G,8 | D,8 | _E,4 C,4 | D,8 | G,,8 |] %58
w: to, Hor|_ non|parl' io|ne|pens' al-|tro|che|pian- *||to.|

